icons/xero.svg

<?xml version="1.0" encoding="UTF-8" standalone="no"?>
<svg width="256px" height="256px" viewBox="0 0 256 256" version="1.1" xmlns="http://www.w3.org/2000/svg" xmlns:xlink="http://www.w3.org/1999/xlink" preserveAspectRatio="xMidYMid">
	<g>
		<path d="M128.00285,256 C198.693118,256 256,198.688775 256,128 C256,57.2998444 198.698818,0 128.00285,0 C57.3068822,0 0,57.2998444 0,128 C0,198.688775 57.3068822,256 128.00285,256" fill="#1FC0E7"></path>
		<path d="M62.3672889,127.967763 L84.1671111,106.065541 C84.8896,105.337363 85.2935111,104.358874 85.2935111,103.323496 C85.2935111,101.161719 83.5413333,99.4095407 81.3852444,99.4095407 C80.3328,99.4095407 79.3486222,99.8191407 78.6090667,100.575763 L56.8206222,122.381274 L34.9468444,100.535941 C34.2072889,99.807763 33.2288,99.4095407 32.1877333,99.4095407 C30.0259556,99.4095407 28.2794667,101.161719 28.2794667,103.317807 C28.2794667,104.370252 28.7004444,105.365807 29.4513778,106.105363 L51.2512,127.93363 L29.4627556,149.778963 C28.7004444,150.541274 28.2794667,151.531141 28.2794667,152.583585 C28.2794667,154.745363 30.0316444,156.497541 32.1877333,156.497541 C33.2288,156.497541 34.2072889,156.099319 34.9468444,155.359763 L56.7921778,133.503052 L78.5521778,155.27443 C79.3258667,156.070874 80.3157333,156.497541 81.3852444,156.497541 C83.5356444,156.497541 85.2878222,154.745363 85.2878222,152.583585 C85.2878222,151.542519 84.8896,150.56403 84.1500444,149.824474 L62.3616,127.945007 L62.3672889,127.967763 Z M191.965867,127.962074 C191.965867,131.887407 195.151644,135.073185 199.076978,135.073185 C202.979556,135.073185 206.165333,131.887407 206.165333,127.962074 C206.165333,124.036741 202.979556,120.850963 199.071289,120.850963 C195.163022,120.850963 191.982933,124.036741 191.982933,127.962074 L191.965867,127.962074 Z M178.511644,127.962074 C178.511644,116.612741 187.727644,107.368296 199.071289,107.368296 C210.392178,107.368296 219.625244,116.612741 219.625244,127.962074 C219.625244,139.311407 210.397867,148.555852 199.071289,148.555852 C187.733333,148.555852 178.511644,139.322785 178.511644,127.962074 L178.511644,127.962074 Z M170.422044,127.962074 C170.422044,143.777185 183.278933,156.65683 199.071289,156.65683 C214.863644,156.65683 227.720533,143.788563 227.720533,127.967763 C227.720533,112.152652 214.863644,99.2730074 199.071289,99.2730074 C183.273244,99.2730074 170.422044,112.146963 170.422044,127.967763 L170.422044,127.962074 Z M168.391111,99.7622519 L167.196444,99.7622519 C163.584,99.7622519 160.1024,100.90003 157.195378,103.147141 C156.797156,101.406341 155.227022,100.075141 153.361067,100.075141 C151.216356,100.075141 149.492622,101.810252 149.492622,103.966341 L149.504,152.293452 C149.504,154.438163 151.267556,156.184652 153.400889,156.184652 C155.551289,156.184652 157.303467,154.438163 157.309156,152.282074 L157.309156,122.563319 C157.309156,112.664652 158.219378,108.659674 166.684444,107.601541 C167.480889,107.50483 168.322844,107.521896 168.334222,107.521896 C170.643911,107.436563 172.293689,105.837985 172.293689,103.681896 C172.293689,101.520119 170.530133,99.7679407 168.368356,99.7679407 L168.391111,99.7622519 Z M93.3774222,123.245985 C93.3774222,123.132207 93.3888,123.01843 93.3944889,122.91603 C95.6586667,113.927585 103.7824,107.288652 113.447822,107.288652 C123.232711,107.288652 131.424711,114.081185 133.586489,123.228919 L93.3717333,123.228919 L93.3774222,123.245985 Z M141.579378,122.50643 C139.895467,114.524919 135.532089,107.96563 128.893156,103.755852 C119.176533,97.5777185 106.353778,97.9190519 96.9784889,104.609185 C89.3212444,110.053452 84.9009778,118.97363 84.9009778,128.161185 C84.9009778,130.465185 85.1854222,132.791941 85.7543111,135.084563 C88.6442667,146.462341 98.4177778,155.086696 110.068622,156.514607 C113.527467,156.935585 116.895289,156.742163 120.365511,155.831941 C123.369244,155.092385 126.264889,153.886341 128.932978,152.168296 C131.703467,150.387674 134.018844,148.032474 136.271644,145.216474 C136.305778,145.159585 136.351289,145.119763 136.3968,145.062874 C137.955556,143.128652 137.665422,140.363852 135.958756,139.055407 C134.513778,137.946074 132.090311,137.496652 130.190222,139.942874 C129.780622,140.534519 129.319822,141.137541 128.824889,141.734874 C127.305956,143.413096 125.422933,145.03443 123.170133,146.297363 C120.291556,147.833363 117.026133,148.703763 113.555911,148.726519 C102.189511,148.595674 96.1137778,140.648296 93.9463111,134.982163 C93.5708444,133.918341 93.2807111,132.820385 93.0759111,131.682607 L93.0190222,131.085274 L133.808356,131.085274 C139.394844,130.960119 142.398578,127.006341 141.568,122.495052 L141.579378,122.50643 Z" fill="#FFFFFF"></path>
	</g>
</svg>

<svg xmlns="http://www.w3.org/2000/svg" viewBox="0 0 256 256">
  <path fill="#1fc0e7" d="M128.003 256C198.693 256 256 198.689 256 128 256 57.3 198.699 0 128.003 0S0 57.3 0 128c0 70.689 57.307 128 128.003 128"/>
  <path fill="#fff" d="m62.367 127.968 21.8-21.902a3.913 3.913 0 0 0-2.782-6.656c-1.052 0-2.036.41-2.776 1.166L56.821 122.38l-21.874-21.845a3.904 3.904 0 0 0-2.76-1.126 3.908 3.908 0 0 0-2.736 6.695l21.8 21.829-21.788 21.845c-.763.762-1.184 1.752-1.184 2.805a3.913 3.913 0 0 0 3.909 3.914c1.04 0 2.02-.399 2.759-1.138l21.845-21.857 21.76 21.771c.774.797 1.764 1.224 2.833 1.224a3.911 3.911 0 0 0 3.903-3.914c0-1.041-.398-2.02-1.138-2.76l-21.788-21.879zm129.599-.006a7.114 7.114 0 0 0 7.111 7.11c3.903 0 7.088-3.185 7.088-7.11 0-3.926-3.185-7.111-7.094-7.111-3.908 0-7.088 3.185-7.088 7.11zm-13.454 0c0-11.35 9.216-20.594 20.56-20.594 11.32 0 20.553 9.244 20.553 20.594 0 11.35-9.227 20.594-20.554 20.594-11.338 0-20.56-9.234-20.56-20.594zm-8.09 0c0 15.815 12.857 28.695 28.65 28.695 15.792 0 28.649-12.869 28.649-28.69 0-15.815-12.857-28.694-28.65-28.694-15.798 0-28.649 12.874-28.649 28.694zm-2.03-28.2h-1.196c-3.612 0-7.094 1.138-10 3.385-.399-1.741-1.969-3.072-3.835-3.072a3.87 3.87 0 0 0-3.868 3.891l.011 48.327c0 2.145 1.764 3.891 3.897 3.891a3.914 3.914 0 0 0 3.908-3.902v-29.719c0-9.899.91-13.904 9.375-14.962.797-.096 1.639-.08 1.65-.08 2.31-.085 3.96-1.683 3.96-3.84a3.923 3.923 0 0 0-3.926-3.913zm-75.015 23.484c0-.114.012-.228.017-.33 2.265-8.988 10.388-15.627 20.054-15.627 9.785 0 17.977 6.792 20.138 15.94H93.372zm48.202-.74c-1.684-7.981-6.047-14.54-12.686-18.75-9.716-6.178-22.54-5.837-31.915.853-7.657 5.444-12.077 14.365-12.077 23.552 0 2.304.284 4.63.853 6.924 2.89 11.377 12.664 20.002 24.315 21.43 3.458.42 6.826.227 10.297-.683 3.003-.74 5.899-1.946 8.567-3.664 2.77-1.78 5.086-4.136 7.339-6.952.034-.056.08-.096.125-.153 1.559-1.934 1.268-4.7-.438-6.008-1.445-1.109-3.869-1.558-5.769.888a26.26 26.26 0 0 1-1.365 1.792c-1.519 1.678-3.402 3.3-5.655 4.562a20.63 20.63 0 0 1-9.614 2.43c-11.366-.131-17.442-8.079-19.61-13.745a21.142 21.142 0 0 1-.87-3.3l-.057-.597h40.79c5.586-.125 8.59-4.079 7.759-8.59z"/>
</svg>
